X:1
T:Standin In The Need of Prayer
T:Anchor in the Lord
T:Copyright 1881 by The Riverside Press
T:Rodeheaver's Plantation Melodies
T:Rodeheaver's Plantation Melodies
Z:Rodeheaver's Plantation Melodies
%%score [ 1 2 3 4 ]
L:1/8
Q:1/4=80
M:2/4
K:Eb
V:1 treble nm="Soprano" snm="S."
V:2 treble nm="Alto" snm="A."
V:3 bass nm="Tenor" snm="T."
V:4 bass nm="Bass" snm="B."
V:1
 dB/G/ GB | d B2 d- | dB dd | e4 | e>c BB | A<G EG- | GB FF | E3 z!fine! || G/EE/ GG | FF EG- | %10
w: An- chor, be- liev- er,|an- chor. *|||Throw your an- chor|a- ny- way, *|||Throw it to my dear|mo- ther's door. *|
w: |||||||||fa- ther's * *|
w: |||||||||sis- ter's * *|
 GB cc | B4 | G/EE/ GG | FF EG- | GB FF | E3 || E | GE GG/G/ | A<G EG- | GB cc | B3 E | GE GG/G/ | %22
w: ||Throw it to my dear|mo- ther's door. *|||King|Je- sus says He will|come a- gain. *||* King|Je- sus says He will|
w: |||fa- ther's * *|||King|Je- sus makes the crip-|ple to walk. *||* King|Je- sus makes the crip-|
w: |||sis- ter's * *|||King|Je- sus makes the blind-|* to see. *||* King|Je- sus makes the blind-|
 A<G EG- | GB FF | E4!D.C.! |] %25
w: come a- gain. *|||
w: ple to walk. *|||
w: * to see. *|||
V:2
 z4 | z2 z d- | dB dd | e4 | z4 | z2 z E- | EE DD | E3 z || z4 | z2 z E- | EG AA | G4 | z4 | %13
w: |an-|* chor in the|Lord.||an-|* chor in the|Lord.||An-|* chor in the|Lord.||
 z2 z E- | EE DD | E3 || z | z4 | z2 z E- | EG AA | G3 z | z4 | z2 z E- | EE DD | E4 |] %25
w: An-|* chor in the|Lord.|||An-|* chor in the|Lord.||An-|* chor in the|Lord.|
V:3
 z4 | z2 z D- | DB, DD | E4 | z4 | z2 z B,- | B,B, A,A, | G,3 z || z4 | z2 z B,- | B,E EE | E4 | %12
 z4 | z2 z B,- | B,B, A,A, | G,3 || z | z4 | z2 z B,- | B,E EE | E3 z | z4 | z2 z B,- | B,B, A,A, | %24
 G,4 |] %25
V:4
 z4 | z2 z D- | DB, DD | E4 | z4 | z2 z E,- | E,E, B,,B,, | E,3 z || z4 | z2 z E,- | E,E, A,A, | %11
 E,4 | z4 | z2 z E,- | E,E, B,,B,, | E,3 || z | z4 | z2 z E,- | E,E, A,A, | E,3 z | z4 | z2 z E,- | %23
 E,E, B,,B,, | E,4 |] %25

